X:43
T:Boot. THO4.043
A:England; London
O:
M:2/4
L:1/8
Z:vmp. Peter Dunk 2010/11.from a transcription by Fynn Titford-Mock 2007
B:Thompson's Compleat Coll. of 200 Favourite Country Dances Vol.IV. 1773-80
Q:1/4=140
K:A
a>ec>A|d2 c>B|a>ec>A|!turn![B4E4]|a>ec>A|G>BA>d|c>Ae>c|[B4E4]:|
|:B>Ed>E|c>ec>A|B>dc>g|a4|f>de>c|d>Bc>a|f>dc>B|A4:|

